apex/img/safety-icon-4.svg

<svg width="70" height="70" viewBox="0 0 70 70" fill="none" xmlns="http://www.w3.org/2000/svg">
<path d="M67.2632 8.88658V2.7367H32.2677V0H0V70H70V8.88672H67.2632V8.88658ZM32.2677 6.83854H63.1615V8.88672H32.2677V6.83854ZM65.8983 65.8982H4.1017V4.10184H28.1658V12.9884H65.8982V65.8982H65.8983Z" fill="#E5A132"/>
</svg>

<svg width="70" height="70" fill="none" xmlns="http://www.w3.org/2000/svg"><path d="M67.263 8.887v-6.15H32.268V0H0v70h70V8.887h-2.737zM32.268 6.839H63.16v2.048H32.268V6.839zm33.63 59.06H4.102V4.101h24.064v8.886h37.732v52.91z" fill="#E5A132"/></svg>
